X: 28
T: Shandon Bells
T: Cluig Sean-duin
O: Ireland (Limerick, Tipperary)
N: AKA "Punch for (the) Ladies", "Ronayne’s Jig".
B: NEFR #28
B: O'Neill's
Z: John Chambers <jc:trillian.mit.edu>
R: jig
M: 6/8
L: 1/8
K: D
B \
| "D"AFD DFA | ded cBA | "Em"BGE E2G | "A7"B2A Bcd \
| "D"AFD DFA | ded cBA | "G"Bcd "A7"ecA | "D"d3- d2 :|
|: g \
| "D"f2d dcd | f2a afd | "A7"cAA eAA | cAc efg \
| "D"f2d dcd | faa afd | "G"Bcd "A7"ecA | "D"d3- d2 :|
